!!!OTL: Der schwatzhafte Junggeselle Es waren mal drei Gesellen, -sellen,
!!!ARE: Europa, Mitteleuropa, Oesterreich / Italia, Sued - Tirol, Bez. Sterzing,
!!    Ratschings
!!!YOR: 6, S. 279
!!    1941 aufgezeichnet
!!!SCT: Q0139I
!!!YEM: Copyright 1995, estate of Helmut Schaffrath.
**kern
*ICvox
*Ivox
*M2/4
*k[f#]
*G:
{4d
=1
4g
8f#
8e
=2
4d
4b
=3
4a
4g
=4
4dd
4b
=5
4r}
{4d
=6
4g
8f#
8e
=7
4d
4b
=8
4a
4g
=9
4dd
4b
=10
4r}
{4dd
=11
8b
8b
8b
8b
=12
4.b
8dd
=13
8ee
8dd
8cc
8b
=14
4.a}
{8a
=15
8a
8a
8a
8a
=16
4.dd
8cc
=17
8b
8b
8a
8a
=18
4g}
{4dd
=19
8b
8b
8b
8b
=20
4.b
8dd
=21
8ee
8dd
8cc
8b
=22
4.a}
{8a
=23
8a
8a
8a
8a
=24
4.dd
8cc
=25
8b
8b
8a
8a
=26
4g}
==
!!!AGN: Ballade, Indiskretion, verweigerter Beischlaf
!! Anhaengsel an Zeile 1 und 2.
!!!ONB: ESAC (Essen Associative Code) Database: BALLADE
!!!AMT: simple duple
!!!AIN: vox
!!!EED: Helmut Schaffrath
!!!EEV: 1.0
*-
